!!!COM:	Pierre de la Rue
**kern	**kern
*part2	*part1
*staff2	*staff1
*clefF4	*clefF4
*k[]	*k[]
*M2/1	*M2/1
=1-	=1-
1G	0r
2.E	.
4F	.
=2	=2
2G	0r
1A	.
2G	.
=3	=3
2A	1c
2A	.
2F	2.A
[2A	.
.	4B
=4	=4
4A]	2c
4G	.
2F	1d
1E	.
.	2c
=5	=5
[0D	2d
.	2d
.	2B
.	[2d
=6	=6
0D]	4d]
.	4c
.	2B
.	1A
=7	=7
1r	[0G
1G	.
=8	=8
2.G	0G]
4F	.
2E	.
2E	.
=9	=9
2.F	1r
4G	.
4A	1c
4B	.
[2A	.
=10	=10
2A]	2.c
2.G	.
.	4B
.	2A
4F	.
2F	2A
=11	=11
1.G	2.B
.	4c
.	4d
.	4e
4F	[2d
4E	.
=12	=12
4F	2d]
4E	.
4D	2.c
4C	.
1D	.
.	4B
.	2B
=13	=13
0C	1.c
.	4B
.	4A
=14	=14
1r	4B
.	4A
.	4G
.	4F
1C	1G
=15	=15
1D	0F
1F	.
=16	=16
1E	1r
1D	1F
=17	=17
2.E	1G
4F	.
2G	1B
2E	.
=18	=18
1F	1A
1E	1G
=19	=19
2r	2.A
2A	.
.	4B
2A	2c
[2A	2A
=20	=20
2A]	1B
2G	.
2F	1A
[2A	.
=21	=21
4A]	2r
4G	.
4F	2d
4E	.
2D	2d
2F	[2d
=22	=22
1E	2d]
.	2c
1D	2B
.	[2d
=23	=23
2r	4d]
.	4c
2.G	4B
.	4A
.	2G
4F	.
4E	2B
4D	.
=24	=24
2C	1A
2AA	.
1BB	1G
=25	=25
2.AA	2r
.	2.c
4BB	.
4C	.
4D	4B
[2E	4A
.	4G
=26	=26
4E]	2F
4D	.
1D	2D
.	1E
2C	.
=27	=27
1D	2.D
.	4E
2BB	4F
.	4G
[2C	[2A
=28	=28
4C]	4A]
4BB	4G
4AA	1G
4GG	.
1AA	.
.	2F
=29	=29
0GG	0G
==	==
*-	*-
